X:1
T:Ottawa (Mason), 87.87.77
T:Ottawa (Mason), 87.87.77
T:Lowell Mason (1792-1872)
T:Public Domain Courtesy of the Cyber Hymnal™
C:Lowell Mason (1792-1872)
Z:Public Domain
Z:Courtesy of the Cyber Hymnal™
%%score ( 1 2 ) ( 3 4 )
L:1/8
Q:1/2=100
M:2/2
K:G
V:1 treble 
V:2 treble 
V:3 bass 
V:4 bass 
V:1
 G4 [FA]4 | [GB]2 [DG]2 [Dc]2 [DB]2 | [GB]4 [FA]4 | [EG]2 [Ec]2 [GB]2 [EA]2 | [DG]4 [DF]4 | %5
 [DG]8 G4 [FA]4 | [GB]2 [DG]2 [Dc]2 [DB]2 | [GB]4 [FA]4 | [EG]2 [Ec]2 [GB]2 [EA]2 | [DG]4 [DF]4 | %10
 [DG]8 [Gd]4 [Ge]4 | [Gd]4 [GB]4 | [Gd]4 [Ge]4 | [Gd]8 [DG]2 [DA]2 [DB]2 [EA]2 | [DG]4 [DF]4 | %15
 [DG]8 |] %16
V:2
 G4 x4 | x8 | x8 | x8 | x8 | x8 G4 x4 | x8 | x8 | x8 | x8 | x16 | x8 | x8 | x16 | x8 | x8 |] %16
V:3
 [G,B,]4 [D,D]4 | [G,D]2 B,2 [F,A,]2 G,2 | [D,D]4 [D,D]4 | [E,B,]2 [A,,A,]2 [B,,D]2 [C,C]2 | %4
 [D,B,]4 (A,2 C2) | [G,,B,]8 [G,B,]4 [D,D]4 | [G,D]2 B,2 [F,A,]2 G,2 | [D,D]4 [D,D]4 | %8
 [E,B,]2 [A,,A,]2 [B,,D]2 [C,C]2 | [D,B,]4 (A,2 C2) | [G,,B,]8 [G,B,]4 [C,C]4 | [G,B,]4 G,4 | %12
 [G,B,]4 [C,C]4 | [G,B,]8 B,2 [F,A,]2 G,2 [C,C]2 | [D,B,]4 (A,2 C2) | [G,,B,]8 |] %16
V:4
 x8 | x2 B,2 G,2 x2 | x8 | x8 | x4 D,4 | x16 | x2 B,2 G,2 x2 | x8 | x8 | x4 D,4 | x16 | x4 G,4 | %12
 x8 | x8 B,2 G,2 x4 | x4 D,4 | x8 |] %16

